X: 5
T:Bantry Bay Boys (#115)
M:6/8
L:1/8
S:Riley's Country Dances for 1798
K:C
c/2d/2|ecA AcA|ecA A2 f|dBG GBG|dBG Bcd|
ecA AcA|ecA c2 d|e2 a g2 e|dBG A2:|
|:B|c>dc cBA|GEG GAB|c>dc cBA|e3 B2 B|
c>dc cBA|GEG GAB|e2 a g2 e|dBG A2:||

